X: 1
T:Laurel Tree, The
R:Reel
Z:Lark camp handouts
M:C|
K:G
"A"eA A/2A/2A e2dc|BGdG Bcdg|eA A/2A/2A e2dc|BGdB BAAd|\
eA A/2A/2A e2dc|BGdG Bcdg|e3f g2 ba|gedB BAAB||\
eA A/2A/2A e2dc|BGdG Bcdg|eA A/2A/2A e2dc|BAGA BAAd|\
eA A/2A/2A e2dc|BdGA Bcdg|edef g2ba|gedB BAAf||\
"B"eaag e2dc|BGdG Bcdg|eaag e2dc|BGdB BAAg|\
eaag e2dc|BGdG Bcdg|e3f g2ba|gedB BAAg||\
eaag egdc|BdGA Bcdg|eaag a2ga|bagb a3g|\
eaag e/2f/2e dc|B~G3 Bcdg|e3f gbaf|gedB BAAd||
